X: 22792
T: Lanigan's Ball
R: jig
M: 6/8
K: Eminor
D|:~E3 G2A|Bc/B/A B^cd|DED F2G|ABA AFD|
EDE G2A|Bc/B/A B^cd|edB cBA|1 GAF E3:|2 GAF E2d||
|:e2f gfe|f/g/ag fed|e2f gfe|fdB B2B|
e2f gfe|f/g/ag fed|edB cBA|1 GAF E3:|2 ~G3 ~F3||

